X:259
T:Scottiche Valse
A:Massif Central
O:France
M:4/4
L:1/4
K:C
edc>d|egec|edc>d|egd2|edc>d|egec|edc>d|egd2||
M:3/4
|:gag|fde|fgf|e2c|efe|dBc|1def|g3:|2ded|c3||
